flaticon/user-interface/browser-10.svg

<svg xmlns="http://www.w3.org/2000/svg" width="32" height="32" viewBox="0 0 24 24">
    <path d="M3 1.199219C2.117188 1.199219 1.398438 1.917969 1.398438 2.800781 1.398438 3.683594 2.117188 4.398438 3 4.398438 3.882812 4.398438 4.601562 3.683594 4.601562 2.800781 4.601562 1.917969 3.882812 1.199219 3 1.199219zM3 3.601562C2.558594 3.601562 2.199219 3.242188 2.199219 2.800781 2.199219 2.359375 2.558594 2 3 2 3.441406 2 3.800781 2.359375 3.800781 2.800781 3.800781 3.242188 3.441406 3.601562 3 3.601562zM6.601562 1.199219C5.71875 1.199219 5 1.917969 5 2.800781 5 3.683594 5.71875 4.398438 6.601562 4.398438 7.480469 4.398438 8.199219 3.683594 8.199219 2.800781 8.199219 1.917969 7.480469 1.199219 6.601562 1.199219zM6.601562 3.601562C6.160156 3.601562 5.800781 3.242188 5.800781 2.800781 5.800781 2.359375 6.160156 2 6.601562 2 7.042969 2 7.398438 2.359375 7.398438 2.800781 7.398438 3.242188 7.042969 3.601562 6.601562 3.601562zM10.199219 1.199219C9.316406 1.199219 8.601562 1.917969 8.601562 2.800781 8.601562 3.683594 9.316406 4.398438 10.199219 4.398438 11.082031 4.398438 11.800781 3.683594 11.800781 2.800781 11.800781 1.917969 11.082031 1.199219 10.199219 1.199219zM10.199219 3.601562C9.757812 3.601562 9.398438 3.242188 9.398438 2.800781 9.398438 2.359375 9.757812 2 10.199219 2 10.640625 2 11 2.359375 11 2.800781 11 3.242188 10.640625 3.601562 10.199219 3.601562zM10.199219 3.601562"/>
    <path d="M 0.199219 0 L 0.199219 24 L 23.800781 24 L 23.800781 0 Z M 23 23.199219 L 1 23.199219 L 1 5.601562 L 23 5.601562 Z M 1 4.800781 L 1 0.800781 L 23 0.800781 L 23 4.800781 Z M 1 4.800781"/>
    <path d="M7.800781 19.199219L1.800781 19.199219 1.800781 22.398438 7.800781 22.398438zM7 21.601562L2.601562 21.601562 2.601562 20 7 20zM15 16.800781L9 16.800781 9 22.398438 15 22.398438zM14.199219 21.601562L9.800781 21.601562 9.800781 17.601562 14.199219 17.601562zM7.800781 6.398438L1.800781 6.398438 1.800781 9.601562 7.800781 9.601562zM7 8.800781L2.601562 8.800781 2.601562 7.199219 7 7.199219zM15 6.398438L9 6.398438 9 12.398438 15 12.398438zM14.199219 11.601562L9.800781 11.601562 9.800781 7.199219 14.199219 7.199219zM7.800781 10.398438L1.800781 10.398438 1.800781 18.398438 7.800781 18.398438zM7 17.601562L2.601562 17.601562 2.601562 11.199219 7 11.199219zM22.199219 18.398438L16.199219 18.398438 16.199219 22.398438 22.199219 22.398438zM21.398438 21.601562L17 21.601562 17 19.199219 21.398438 19.199219zM22.199219 6.398438L16.199219 6.398438 16.199219 10.800781 22.199219 10.800781zM21.398438 10L17 10 17 7.199219 21.398438 7.199219zM22.199219 11.601562L16.199219 11.601562 16.199219 17.601562 22.199219 17.601562zM21.398438 16.800781L17 16.800781 17 12.398438 21.398438 12.398438zM15 13.199219L9 13.199219 9 16 15 16zM14.199219 15.199219L9.800781 15.199219 9.800781 14 14.199219 14zM14.199219 15.199219"/>
</svg>

<svg xmlns="http://www.w3.org/2000/svg" width="32" height="32" viewBox="0 0 24 24">
    <path d="M3 1.2c-.883 0-1.602.718-1.602 1.6A1.6 1.6 0 0 0 3 4.399a1.6 1.6 0 0 0 1.602-1.597c0-.883-.72-1.602-1.602-1.602zm0 2.402A.802.802 0 0 1 3 2a.802.802 0 0 1 0 1.602zm0 0M6.602 1.2C5.719 1.2 5 1.917 5 2.8a1.6 1.6 0 0 0 3.2 0c0-.882-.72-1.6-1.598-1.6zm0 2.402a.802.802 0 0 1 0-1.602c.441 0 .796.36.796.8 0 .442-.355.802-.796.802zm0 0M10.2 1.2a1.6 1.6 0 1 0 1.6 1.6c0-.882-.718-1.6-1.6-1.6zm0 2.402A.802.802 0 0 1 10.2 2a.802.802 0 0 1 0 1.602zm0 0"/>
    <path d="M.2 0v24h23.6V0zM23 23.2H1V5.601h22zM1 4.8v-4h22v4zm0 0"/>
    <path d="M7.8 19.2h-6v3.198h6zM7 21.601H2.602V20H7zm0 0M15 16.8H9v5.598h6zm-.8 4.802H9.8v-4h4.4zm0 0M7.8 6.398h-6v3.204h6zM7 8.801H2.602V7.199H7zm0 0M15 6.398H9v6h6zm-.8 5.204H9.8V7.199h4.4zm0 0M7.8 10.398h-6v8h6zM7 17.602H2.602v-6.403H7zm0 0M22.2 18.398h-6v4h6zm-.802 3.204H17v-2.403h4.398zm0 0M22.2 6.398h-6v4.403h6zM21.397 10H17V7.2h4.398zm0 0M22.2 11.602h-6v6h6zm-.802 5.199H17v-4.403h4.398zm0 0M15 13.2H9V16h6zm-.8 2H9.8V14h4.4zm0 0"/>
</svg>
